assets/img/logo.svg

<svg width="1024" height="1024" viewBox="0 0 1024 1024" fill="none" xmlns="http://www.w3.org/2000/svg">
<path d="M351.108 1003.31L351.139 1003.31L351.17 1003.32C413.127 1014.46 461.69 1020.17 509.494 1020.46L509.494 1020.5L512.005 1020.49C560.62 1020.39 609.792 1014.68 672.83 1003.34L672.861 1003.34L672.892 1003.33C747.449 987.957 810.024 963.093 863.511 927.712L863.526 927.702L863.541 927.692C906.999 898.03 936.312 872.056 956.912 841.121C977.507 810.193 989.258 774.507 997.948 725.651C1000.98 714.111 1003.18 694.15 1004.71 668.266C1006.24 642.237 1007.1 610.022 1007.39 573.949C1007.97 501.798 1006.28 414.126 1003.17 329.474C1000.06 244.824 995.521 163.159 990.404 103.024C987.846 72.9666 985.139 48.2359 982.383 31.1875C981.008 22.6837 979.605 15.9839 978.17 11.466C977.462 9.23658 976.689 7.3501 975.804 6.0261C975.107 4.98517 973.666 3.34838 971.559 3.62732C966.607 3.20041 960.037 4.12118 952.104 6.1509C943.917 8.2455 934.069 11.5776 922.692 16.0687C899.936 25.0522 870.894 38.7414 836.505 56.6634C767.885 92.4245 677.803 145.127 573.548 211.183C525.68 204.775 498.335 204.756 450.452 211.159C346.198 145.102 256.116 92.3999 187.495 56.6387C153.106 38.7167 124.064 25.0275 101.308 16.0441C89.9315 11.5529 80.0831 8.22083 71.8962 6.12623C63.9628 4.09652 57.3935 3.17575 52.4408 3.60265C50.334 3.32372 48.8925 4.96051 48.1962 6.00144C47.3105 7.32543 46.5381 9.21192 45.8302 11.4413C44.3955 15.9593 42.9922 22.6591 41.6175 31.1628C38.8613 48.2113 36.1538 72.9419 33.596 102.999C28.4786 163.135 23.9434 244.8 20.8324 329.45C17.7213 414.102 16.0331 501.773 16.613 573.924C16.903 609.998 17.76 642.213 19.292 668.241C20.8156 694.126 23.0155 714.086 26.0516 725.626C34.7422 774.483 46.4932 810.168 67.088 841.096C87.6876 872.031 117.002 898.005 160.459 927.668L160.474 927.678L160.489 927.688C213.976 963.068 276.551 987.932 351.108 1003.31Z" fill="white" stroke="black" stroke-width="5"/>
<path d="M511.513 737.065C518.177 737.846 525.019 739.346 531.028 741.327C546.804 746.443 543.035 753.759 534.394 759.444C531.241 761.519 527.437 763.392 523.673 765.245C516.825 768.617 510.108 771.924 507.675 776.267C505.75 779.753 506.754 796.07 507.321 805.299C507.438 807.193 507.536 808.789 507.587 809.914C508.385 825.625 526.146 836.657 542.808 836.946C547.909 837.007 550.972 833.46 553.893 830.078C556.532 827.022 559.054 824.101 562.857 824.101C566.665 824.101 567.736 829.023 565.118 834.545C563.452 838.027 558.574 842.469 553.814 844.87C546.318 848.591 538.583 848.411 529.005 844.209C521.747 841.088 514.667 835.926 507.587 828.723C502.619 822.047 499.846 821.987 494.877 828.724C487.797 835.927 480.717 841.089 473.459 844.211C463.88 848.412 456.146 848.592 448.649 844.871C443.89 842.47 439.011 838.028 437.346 834.547C434.728 829.024 435.799 824.102 439.606 824.102C443.41 824.102 445.932 827.023 448.571 830.079C451.491 833.461 454.554 837.008 459.656 836.948C476.317 836.658 494.078 825.627 494.877 809.915C494.927 808.791 495.026 807.195 495.142 805.3C495.71 796.071 496.714 779.755 494.788 776.269C492.355 771.925 485.639 768.618 478.791 765.247C475.027 763.393 471.223 761.52 468.069 759.445C459.429 753.76 455.66 746.444 471.436 741.328C477.445 739.348 484.287 737.847 490.95 737.067C497.638 736.353 504.831 736.353 511.513 737.065Z" fill="black"/>
<path d="M589.296 643.661C589.296 740.4 664.174 818.822 756.54 818.822C848.906 818.822 923.784 740.4 923.784 643.661C923.784 546.922 848.906 468.5 756.54 468.5C664.174 468.5 589.296 546.922 589.296 643.661Z" fill="black"/>
<path d="M781.775 578.89C755.421 590.537 704.989 615.873 688.339 626.08C652.521 647.693 609.277 678.912 609.277 683.115C609.277 685.396 619.939 694.402 629.402 700.046C661.266 719.137 702.114 721.179 735.775 705.449C770.634 688.999 791.957 661.742 801.779 621.036C804.055 611.671 804.894 580.691 802.977 574.087C801.899 570.005 802.378 569.885 781.775 578.89Z" fill="white"/>
<path d="M416.115 643.661C416.115 740.4 341.237 818.822 248.871 818.822C156.505 818.822 81.6271 740.4 81.6271 643.661C81.6271 546.922 156.505 468.5 248.871 468.5C341.237 468.5 416.115 546.922 416.115 643.661Z" fill="black"/>
<path d="M223.636 578.89C249.99 590.537 300.421 615.873 317.072 626.08C352.889 647.693 396.133 678.912 396.133 683.115C396.133 685.396 385.472 694.402 376.009 700.046C344.145 719.137 303.296 721.179 269.635 705.449C234.777 688.999 213.454 661.742 203.631 621.036C201.355 611.671 200.517 580.691 202.433 574.087C203.512 570.005 203.032 569.885 223.636 578.89Z" fill="white"/>
<path d="M55.2985 27.5499C54.5133 28.8799 52.4597 39.8228 51.7953 46.1708C50.7081 56.0254 50.6477 94.295 51.7349 104.815C55.4797 140.908 63.9358 186.372 72.3918 215.452C73.3582 218.777 75.1098 225.186 76.3179 229.66C84.8947 262.065 101.626 305.897 117.149 336.669C122.283 346.826 129.47 359.643 130.074 359.643C130.678 359.643 135.51 356.318 145.174 349.305C180.388 323.792 202.736 309.161 233.963 291.205C254.862 279.174 279.082 267.627 309.162 255.354C341.295 242.235 384.541 229.599 413.775 224.762C423.681 223.13 423.802 223.856 412.205 215.573C407.856 212.49 398.192 205.477 390.702 199.975C366.904 182.563 347.878 169.686 322.933 154.208C313.148 148.163 279.686 129.058 262.049 119.506C245.983 110.74 193.314 84.3195 177.791 77.1855C170.845 73.9813 159.127 68.6006 151.818 65.215C137.624 58.6855 128.141 54.5744 115.578 49.496C111.29 47.7427 103.921 44.7198 99.27 42.7247C88.3979 38.0695 69.3114 30.7542 62.8486 28.6986C57.7145 27.0662 55.7213 26.7639 55.2985 27.5499Z" fill="black"/>
<path d="M968.915 27.5499C969.7 28.88 971.754 39.8228 972.418 46.1708C973.505 56.0254 973.566 94.2951 972.478 104.815C968.734 140.908 960.278 186.372 951.821 215.452C950.855 218.777 949.103 225.186 947.895 229.66C939.319 262.065 922.588 305.897 907.065 336.669C901.931 346.826 894.743 359.643 894.139 359.643C893.535 359.643 888.703 356.318 879.039 349.305C843.826 323.792 821.477 309.161 790.25 291.205C769.352 279.174 745.131 267.627 715.052 255.354C682.919 242.235 639.672 229.599 610.438 224.762C600.533 223.13 600.412 223.856 612.009 215.573C616.357 212.49 626.022 205.477 633.511 199.975C657.309 182.563 676.335 169.686 701.28 154.209C711.065 148.163 744.527 129.058 762.164 119.506C778.231 110.74 830.9 84.3195 846.423 77.1855C853.369 73.9813 865.086 68.6006 872.395 65.215C886.589 58.6855 896.072 54.5744 908.635 49.496C912.924 47.7427 920.292 44.7198 924.943 42.7248C935.815 38.0695 954.902 30.7542 961.365 28.6986C966.499 27.0662 968.492 26.764 968.915 27.5499Z" fill="black"/>
</svg>

<svg width="1024" height="1024" xmlns="http://www.w3.org/2000/svg"><path d="M351.108 1003.31h.031l.031.01c61.957 11.14 110.52 16.85 158.324 17.14v.04l2.511-.01c48.615-.1 97.787-5.81 160.825-17.15h.031l.031-.01c74.557-15.373 137.132-40.237 190.619-75.618l.015-.01.015-.01c43.458-29.662 72.771-55.636 93.371-86.571 20.595-30.928 32.346-66.614 41.036-115.47 3.032-11.54 5.232-31.501 6.762-57.385 1.53-26.029 2.39-58.244 2.68-94.317.58-72.151-1.11-159.823-4.22-244.475-3.11-84.65-7.649-166.315-12.766-226.45-2.558-30.057-5.265-54.788-8.021-71.837-1.375-8.503-2.778-15.203-4.213-19.721-.708-2.23-1.481-4.116-2.366-5.44-.697-1.04-2.138-2.678-4.245-2.399-4.952-.427-11.522.494-19.455 2.524-8.187 2.095-18.035 5.427-29.412 9.918-22.756 8.983-51.798 22.672-86.187 40.594-68.62 35.761-158.702 88.464-262.957 154.52-47.868-6.408-75.213-6.427-123.096-.024-104.254-66.057-194.336-118.76-262.957-154.52-34.389-17.922-63.431-31.612-86.187-40.595-11.377-4.491-21.225-7.823-29.412-9.918-7.933-2.03-14.502-2.95-19.455-2.523-2.107-.28-3.549 1.358-4.245 2.398-.886 1.324-1.658 3.21-2.366 5.44-1.434 4.518-2.838 11.218-4.212 19.722-2.757 17.048-5.464 41.779-8.022 71.836-5.117 60.136-9.653 141.801-12.764 226.451-3.11 84.652-4.799 172.323-4.219 244.474.29 36.074 1.147 68.289 2.679 94.317 1.524 25.885 3.723 45.845 6.76 57.385 8.69 48.857 20.441 84.542 41.036 115.47 20.6 30.935 49.914 56.909 93.371 86.572l.015.01.015.01c53.487 35.38 116.062 60.244 190.619 75.622z" fill="#fff" stroke="#000" stroke-width="5"/><path d="M511.513 737.065c6.664.781 13.506 2.281 19.515 4.262 15.776 5.116 12.007 12.432 3.366 18.117-3.153 2.075-6.957 3.948-10.721 5.801-6.848 3.372-13.565 6.679-15.998 11.022-1.925 3.486-.921 19.803-.354 29.032a324 324 0 01.266 4.615c.798 15.711 18.559 26.743 35.221 27.032 5.101.061 8.164-3.486 11.085-6.868 2.639-3.056 5.161-5.977 8.964-5.977 3.808 0 4.879 4.922 2.261 10.444-1.666 3.482-6.544 7.924-11.304 10.325-7.496 3.721-15.231 3.541-24.809-.661-7.258-3.121-14.338-8.283-21.418-15.486-4.968-6.676-7.741-6.736-12.71.001-7.08 7.203-14.16 12.365-21.418 15.487-9.579 4.201-17.313 4.381-24.81.66-4.759-2.401-9.638-6.843-11.303-10.324-2.618-5.523-1.547-10.445 2.26-10.445 3.804 0 6.326 2.921 8.965 5.977 2.92 3.382 5.983 6.929 11.085 6.869 16.661-.29 34.422-11.321 35.221-27.033.05-1.124.149-2.72.265-4.615.568-9.229 1.572-25.545-.354-29.031-2.433-4.344-9.149-7.651-15.997-11.022-3.764-1.854-7.568-3.727-10.722-5.802-8.64-5.685-12.409-13.001 3.367-18.117 6.009-1.98 12.851-3.481 19.514-4.261a99.107 99.107 0 0120.563-.002zM589.296 643.661c0 96.739 74.878 175.161 167.244 175.161S923.784 740.4 923.784 643.661 848.906 468.5 756.54 468.5s-167.244 78.422-167.244 175.161z"/><path d="M781.775 578.89c-26.354 11.647-76.786 36.983-93.436 47.19-35.818 21.613-79.062 52.832-79.062 57.035 0 2.281 10.662 11.287 20.125 16.931 31.864 19.091 72.712 21.133 106.373 5.403 34.859-16.45 56.182-43.707 66.004-84.413 2.276-9.365 3.115-40.345 1.198-46.949-1.078-4.082-.599-4.202-21.202 4.803z" fill="#fff"/><path d="M416.115 643.661c0 96.739-74.878 175.161-167.244 175.161S81.627 740.4 81.627 643.661 156.505 468.5 248.871 468.5s167.244 78.422 167.244 175.161z"/><path d="M223.636 578.89c26.354 11.647 76.785 36.983 93.436 47.19 35.817 21.613 79.061 52.832 79.061 57.035 0 2.281-10.661 11.287-20.124 16.931-31.864 19.091-72.713 21.133-106.374 5.403-34.858-16.45-56.181-43.707-66.004-84.413-2.276-9.365-3.114-40.345-1.198-46.949 1.079-4.082.599-4.202 21.203 4.803z" fill="#fff"/><path d="M55.298 27.55c-.785 1.33-2.838 12.273-3.503 18.62-1.087 9.855-1.147 48.125-.06 58.645 3.745 36.093 12.2 81.557 20.657 110.637.966 3.325 2.718 9.734 3.926 14.208 8.577 32.405 25.308 76.237 40.831 107.009 5.134 10.157 12.321 22.974 12.925 22.974.604 0 5.436-3.325 15.1-10.338 35.214-25.513 57.562-40.144 88.789-58.1 20.899-12.031 45.119-23.578 75.199-35.851 32.133-13.119 75.379-25.755 104.613-30.592 9.906-1.632 10.027-.906-1.57-9.189-4.349-3.083-14.013-10.096-21.503-15.598-23.798-17.412-42.824-30.289-67.769-45.767-9.785-6.045-43.247-25.15-60.884-34.702-16.066-8.766-68.735-35.186-84.258-42.32-6.946-3.205-18.664-8.585-25.973-11.971-14.194-6.53-23.677-10.64-36.24-15.719-4.288-1.753-11.657-4.776-16.308-6.771-10.872-4.656-29.959-11.97-36.421-14.026-5.134-1.633-7.128-1.935-7.55-1.15zM968.915 27.55c.785 1.33 2.839 12.273 3.503 18.62 1.087 9.855 1.148 48.125.06 58.645-3.744 36.093-12.2 81.557-20.657 110.637-.966 3.325-2.718 9.734-3.926 14.208-8.576 32.405-25.307 76.237-40.83 107.009-5.134 10.157-12.322 22.974-12.926 22.974-.604 0-5.436-3.325-15.1-10.338-35.213-25.513-57.562-40.144-88.789-58.1-20.898-12.031-45.119-23.578-75.198-35.851-32.133-13.119-75.38-25.755-104.614-30.592-9.905-1.632-10.026-.906 1.571-9.189 4.348-3.083 14.013-10.096 21.502-15.598 23.798-17.412 42.824-30.289 67.769-45.766 9.785-6.046 43.247-25.151 60.884-34.703 16.067-8.766 68.736-35.186 84.259-42.32 6.946-3.205 18.663-8.585 25.972-11.971 14.194-6.53 23.677-10.64 36.24-15.719 4.289-1.753 11.657-4.776 16.308-6.771 10.872-4.656 29.959-11.97 36.422-14.026 5.134-1.633 7.127-1.935 7.55-1.15z"/></svg>
